icons/modern/palm-down-hand-dark.svg

<svg width="32" height="32" viewBox="0 0 32 32" fill="none" xmlns="http://www.w3.org/2000/svg">
<path d="M14.9809 17.905C13.793 17.6835 13.0064 16.5405 13.2279 15.3525L14.1751 10.2316L18.4805 11.031L17.5302 16.152C17.3119 17.3399 16.1689 18.1265 14.9809 17.905Z" fill="url(#paint0_radial_20020_6744)"/>
<path d="M14.9809 17.905C13.793 17.6835 13.0064 16.5405 13.2279 15.3525L14.1751 10.2316L18.4805 11.031L17.5302 16.152C17.3119 17.3399 16.1689 18.1265 14.9809 17.905Z" fill="url(#paint1_linear_20020_6744)"/>
<path d="M14.9809 17.905C13.793 17.6835 13.0064 16.5405 13.2279 15.3525L14.1751 10.2316L18.4805 11.031L17.5302 16.152C17.3119 17.3399 16.1689 18.1265 14.9809 17.905Z" fill="url(#paint2_radial_20020_6744)"/>
<path d="M18.7695 19.9601C17.5655 19.8381 16.689 18.7658 16.8078 17.5618L17.3279 12.3766L21.6847 12.8132L21.1646 17.9984C21.0458 19.2024 19.9735 20.0821 18.7695 19.9601Z" fill="url(#paint3_radial_20020_6744)"/>
<path d="M18.7695 19.9601C17.5655 19.8381 16.689 18.7658 16.8078 17.5618L17.3279 12.3766L21.6847 12.8132L21.1646 17.9984C21.0458 19.2024 19.9735 20.0821 18.7695 19.9601Z" fill="url(#paint4_radial_20020_6744)"/>
<path d="M18.7695 19.9601C17.5655 19.8381 16.689 18.7658 16.8078 17.5618L17.3279 12.3766L21.6847 12.8132L21.1646 17.9984C21.0458 19.2024 19.9735 20.0821 18.7695 19.9601Z" fill="url(#paint5_radial_20020_6744)"/>
<path d="M18.7695 19.9601C17.5655 19.8381 16.689 18.7658 16.8078 17.5618L17.3279 12.3766L21.6847 12.8132L21.1646 17.9984C21.0458 19.2024 19.9735 20.0821 18.7695 19.9601Z" fill="url(#paint6_linear_20020_6744)"/>
<path d="M23.929 20.6724C22.7411 20.8939 21.5981 20.1073 21.3765 18.9194L20.25 12.9078L24.7285 12.9958L25.682 18.1199C25.9004 19.3079 25.117 20.4509 23.929 20.6724Z" fill="url(#paint7_radial_20020_6744)"/>
<path d="M23.929 20.6724C22.7411 20.8939 21.5981 20.1073 21.3765 18.9194L20.25 12.9078L24.7285 12.9958L25.682 18.1199C25.9004 19.3079 25.117 20.4509 23.929 20.6724Z" fill="url(#paint8_radial_20020_6744)"/>
<g filter="url(#filter0_iii_20020_6744)">
<path d="M12.6606 16.8072C12.6606 15.1056 13.5474 14.232 15.0591 13.7282C16.0356 13.5172 19.5903 13.5797 19.5903 13.5797C20.7231 13.5797 21.3697 14.0276 22.0278 14.6344L25.7856 17.8453C26.77 18.7516 28.2697 18.9637 29.2778 17.9234C30.3309 16.8382 30.2153 15.1891 28.9341 14.0797L23.1685 9.09203C21.8681 7.92336 21.2466 7.27481 18.8594 7.27481L9.88721 7.27481C5.0584 7.24591 2.1095 10.2047 2.1095 14.0797C2.1095 16.4235 4.19223 18.8868 5.79346 20.5484L7.51221 22.1818C8.87352 23.389 10.645 24.4078 12.4888 24.4078H14.3169C14.9077 24.4078 15.3693 24.3491 16.106 24.7906C17.0114 25.3332 18.436 25.2106 19.1841 24.4625C19.8358 23.8107 20.0345 22.8755 19.6878 22.0183C19.0866 20.5214 17.4263 19.8922 15.8091 19.5797L14.6841 19.4234C13.2388 19.3219 12.6606 17.6891 12.6606 16.8072Z" fill="url(#paint9_linear_20020_6744)"/>
</g>
<path d="M12.6606 16.8072C12.6606 15.1056 13.5474 14.232 15.0591 13.7282C16.0356 13.5172 19.5903 13.5797 19.5903 13.5797C20.7231 13.5797 21.3697 14.0276 22.0278 14.6344L25.7856 17.8453C26.77 18.7516 28.2697 18.9637 29.2778 17.9234C30.3309 16.8382 30.2153 15.1891 28.9341 14.0797L23.1685 9.09203C21.8681 7.92336 21.2466 7.27481 18.8594 7.27481L9.88721 7.27481C5.0584 7.24591 2.1095 10.2047 2.1095 14.0797C2.1095 16.4235 4.19223 18.8868 5.79346 20.5484L7.51221 22.1818C8.87352 23.389 10.645 24.4078 12.4888 24.4078H14.3169C14.9077 24.4078 15.3693 24.3491 16.106 24.7906C17.0114 25.3332 18.436 25.2106 19.1841 24.4625C19.8358 23.8107 20.0345 22.8755 19.6878 22.0183C19.0866 20.5214 17.4263 19.8922 15.8091 19.5797L14.6841 19.4234C13.2388 19.3219 12.6606 17.6891 12.6606 16.8072Z" fill="url(#paint10_radial_20020_6744)"/>
<g filter="url(#filter1_f_20020_6744)">
<path d="M21.4229 9.55636L28.1134 14.826C28.4945 15.1261 28.5483 15.6834 28.2318 16.0509C27.9418 16.3878 27.4414 16.445 27.0828 16.1822L20.9204 11.6657C20.5103 11.3652 20.0012 11.2321 19.4965 11.2935L14.5167 11.8997C12.5093 12.144 11 13.8482 11 15.8704V16.6401C11 17.594 11.3409 18.5165 11.9612 19.2412L12.1363 19.4458C12.631 20.0238 13.3269 20.3922 14.083 20.4766L16.0015 20.6905C16.6485 20.7626 17.2545 21.0433 17.728 21.4901L18.5738 22.2882C18.86 22.5584 18.8707 23.0102 18.5975 23.2936C18.34 23.5606 17.9198 23.5833 17.635 23.3455L17.198 22.9804C16.6584 22.5299 15.9779 22.2831 15.275 22.2831H13.0987C12.0877 22.2831 11.1142 21.9002 10.3741 21.2116L6.57149 17.6737C5.52217 16.6975 5.07538 15.2344 5.40027 13.8385L5.63884 12.8134C6.15343 10.6024 8.09291 9.01558 10.362 8.94898L18.8306 8.70044C19.7683 8.67292 20.6859 8.97588 21.4229 9.55636Z" fill="#624C4B"/>
</g>
<defs>
<filter id="filter0_iii_20020_6744" x="2.1095" y="6.0246" width="29.1303" height="19.2507" filterUnits="userSpaceOnUse" color-interpolation-filters="sRGB">
<feFlood flood-opacity="0" result="BackgroundImageFix"/>
<feBlend mode="normal" in="SourceGraphic" in2="BackgroundImageFix" result="shape"/>
<feColorMatrix in="SourceAlpha" type="matrix" values="0 0 0 0 0 0 0 0 0 0 0 0 0 0 0 0 0 0 127 0" result="hardAlpha"/>
<feOffset dx="1.25" dy="-1.25"/>
<feGaussianBlur stdDeviation="0.75"/>
<feComposite in2="hardAlpha" operator="arithmetic" k2="-1" k3="1"/>
<feColorMatrix type="matrix" values="0 0 0 0 0.270588 0 0 0 0 0.180392 0 0 0 0 0.172549 0 0 0 1 0"/>
<feBlend mode="normal" in2="shape" result="effect1_innerShadow_20020_6744"/>
<feColorMatrix in="SourceAlpha" type="matrix" values="0 0 0 0 0 0 0 0 0 0 0 0 0 0 0 0 0 0 127 0" result="hardAlpha"/>
<feOffset dy="-0.4"/>
<feGaussianBlur stdDeviation="0.4"/>
<feComposite in2="hardAlpha" operator="arithmetic" k2="-1" k3="1"/>
<feColorMatrix type="matrix" values="0 0 0 0 0.231373 0 0 0 0 0.137255 0 0 0 0 0.239216 0 0 0 1 0"/>
<feBlend mode="normal" in2="effect1_innerShadow_20020_6744" result="effect2_innerShadow_20020_6744"/>
<feColorMatrix in="SourceAlpha" type="matrix" values="0 0 0 0 0 0 0 0 0 0 0 0 0 0 0 0 0 0 127 0" result="hardAlpha"/>
<feOffset dx="0.15" dy="0.15"/>
<feGaussianBlur stdDeviation="0.25"/>
<feComposite in2="hardAlpha" operator="arithmetic" k2="-1" k3="1"/>
<feColorMatrix type="matrix" values="0 0 0 0 0.32549 0 0 0 0 0.266667 0 0 0 0 0.254902 0 0 0 1 0"/>
<feBlend mode="normal" in2="effect2_innerShadow_20020_6744" result="effect3_innerShadow_20020_6744"/>
</filter>
<filter id="filter1_f_20020_6744" x="3.29602" y="6.69873" width="27.1422" height="18.8112" filterUnits="userSpaceOnUse" color-interpolation-filters="sRGB">
<feFlood flood-opacity="0" result="BackgroundImageFix"/>
<feBlend mode="normal" in="SourceGraphic" in2="BackgroundImageFix" result="shape"/>
<feGaussianBlur stdDeviation="1" result="effect1_foregroundBlur_20020_6744"/>
</filter>
<radialGradient id="paint0_radial_20020_6744" cx="0" cy="0" r="1" gradientUnits="userSpaceOnUse" gradientTransform="translate(15.2441 16.9107) rotate(-72.8178) scale(3.9643 3.11363)">
<stop stop-color="#331C2A"/>
<stop offset="1" stop-color="#1B0B0F"/>
</radialGradient>
<linearGradient id="paint1_linear_20020_6744" x1="17.1378" y1="17.6084" x2="16.1162" y2="17.5087" gradientUnits="userSpaceOnUse">
<stop stop-color="#1A0A0D"/>
<stop offset="1" stop-color="#1A0A0D" stop-opacity="0"/>
</linearGradient>
<radialGradient id="paint2_radial_20020_6744" cx="0" cy="0" r="1" gradientUnits="userSpaceOnUse" gradientTransform="translate(15.0781 13.6891) rotate(80.8808) scale(4.77916 4.0293)">
<stop offset="0.72718" stop-color="#3E243D" stop-opacity="0"/>
<stop offset="0.909009" stop-color="#3E243D"/>
</radialGradient>
<radialGradient id="paint3_radial_20020_6744" cx="0" cy="0" r="1" gradientUnits="userSpaceOnUse" gradientTransform="translate(18.8125 19.4078) rotate(-82.5284) scale(7.69029 2.67036)">
<stop stop-color="#453336"/>
<stop offset="1" stop-color="#2E1B1C"/>
</radialGradient>
<radialGradient id="paint4_radial_20020_6744" cx="0" cy="0" r="1" gradientUnits="userSpaceOnUse" gradientTransform="translate(19.75 13.3453) rotate(96.8313) scale(6.87836 5.87923)">
<stop offset="0.860174" stop-color="#412742" stop-opacity="0"/>
<stop offset="0.965343" stop-color="#412742"/>
</radialGradient>
<radialGradient id="paint5_radial_20020_6744" cx="0" cy="0" r="1" gradientUnits="userSpaceOnUse" gradientTransform="translate(18.3125 20.4703) rotate(-77.5741) scale(7.5519 7.42451)">
<stop offset="0.666872" stop-color="#1C0A10" stop-opacity="0"/>
<stop offset="1" stop-color="#1C0A10"/>
</radialGradient>
<linearGradient id="paint6_linear_20020_6744" x1="21.4485" y1="17.2595" x2="20.1279" y2="17.5087" gradientUnits="userSpaceOnUse">
<stop stop-color="#1A0C0D"/>
<stop offset="1" stop-color="#1A0C0D" stop-opacity="0"/>
</linearGradient>
<radialGradient id="paint7_radial_20020_6744" cx="0" cy="0" r="1" gradientUnits="userSpaceOnUse" gradientTransform="translate(24 20.5016) rotate(-104.097) scale(7.18512 1.56176)">
<stop offset="0.192233" stop-color="#453135"/>
<stop offset="1" stop-color="#382828"/>
</radialGradient>
<radialGradient id="paint8_radial_20020_6744" cx="0" cy="0" r="1" gradientUnits="userSpaceOnUse" gradientTransform="translate(24.1875 13.5641) rotate(98.8826) scale(7.2324 4.46687)">
<stop offset="0.909154" stop-color="#422844" stop-opacity="0"/>
<stop offset="0.996372" stop-color="#422844"/>
</radialGradient>
<linearGradient id="paint9_linear_20020_6744" x1="9.48084" y1="22.579" x2="26.7102" y2="10.4847" gradientUnits="userSpaceOnUse">
<stop stop-color="#482D31"/>
<stop offset="1" stop-color="#553B37"/>
</linearGradient>
<radialGradient id="paint10_radial_20020_6744" cx="0" cy="0" r="1" gradientUnits="userSpaceOnUse" gradientTransform="translate(2.8125 18.2203) rotate(48.5035) scale(8.67828 3.03162)">
<stop stop-color="#4C3A3F"/>
<stop offset="1" stop-color="#4C3A3F" stop-opacity="0"/>
</radialGradient>
</defs>
</svg>

<svg width="32" height="32" fill="none" xmlns="http://www.w3.org/2000/svg"><path d="M14.98 17.905a2.19 2.19 0 0 1-1.752-2.553l.947-5.12 4.305.799-.95 5.121a2.186 2.186 0 0 1-2.55 1.753Z" fill="url(#a)"/><path d="M14.98 17.905a2.19 2.19 0 0 1-1.752-2.553l.947-5.12 4.305.799-.95 5.121a2.186 2.186 0 0 1-2.55 1.753Z" fill="url(#b)"/><path d="M14.98 17.905a2.19 2.19 0 0 1-1.752-2.553l.947-5.12 4.305.799-.95 5.121a2.186 2.186 0 0 1-2.55 1.753Z" fill="url(#c)"/><path d="M18.77 19.96a2.193 2.193 0 0 1-1.962-2.398l.52-5.185 4.357.436-.52 5.185a2.186 2.186 0 0 1-2.395 1.962Z" fill="url(#d)"/><path d="M18.77 19.96a2.193 2.193 0 0 1-1.962-2.398l.52-5.185 4.357.436-.52 5.185a2.186 2.186 0 0 1-2.395 1.962Z" fill="url(#e)"/><path d="M18.77 19.96a2.193 2.193 0 0 1-1.962-2.398l.52-5.185 4.357.436-.52 5.185a2.186 2.186 0 0 1-2.395 1.962Z" fill="url(#f)"/><path d="M18.77 19.96a2.193 2.193 0 0 1-1.962-2.398l.52-5.185 4.357.436-.52 5.185a2.186 2.186 0 0 1-2.395 1.962Z" fill="url(#g)"/><path d="M23.929 20.672a2.19 2.19 0 0 1-2.552-1.753l-1.127-6.011 4.479.088.953 5.124a2.193 2.193 0 0 1-1.753 2.552Z" fill="url(#h)"/><path d="M23.929 20.672a2.19 2.19 0 0 1-2.552-1.753l-1.127-6.011 4.479.088.953 5.124a2.193 2.193 0 0 1-1.753 2.552Z" fill="url(#i)"/><g filter="url(#j)"><path d="M12.66 16.807c0-1.701.887-2.575 2.4-3.079.976-.21 4.53-.148 4.53-.148 1.133 0 1.78.448 2.438 1.054l3.758 3.211c.984.907 2.484 1.119 3.492.078 1.053-1.085.937-2.734-.344-3.843L23.17 9.092c-1.3-1.169-1.922-1.817-4.31-1.817H9.887c-4.829-.03-7.777 2.93-7.777 6.805 0 2.344 2.082 4.807 3.683 6.468l1.72 1.634c1.36 1.207 3.132 2.226 4.976 2.226h1.828c.59 0 1.052-.059 1.789.383.905.542 2.33.42 3.078-.329.652-.651.85-1.587.504-2.444-.601-1.497-2.262-2.126-3.879-2.438l-1.125-.157c-1.445-.101-2.023-1.734-2.023-2.616Z" fill="url(#k)"/></g><path d="M12.66 16.807c0-1.701.887-2.575 2.4-3.079.976-.21 4.53-.148 4.53-.148 1.133 0 1.78.448 2.438 1.054l3.758 3.211c.984.907 2.484 1.119 3.492.078 1.053-1.085.937-2.734-.344-3.843L23.17 9.092c-1.3-1.169-1.922-1.817-4.31-1.817H9.887c-4.829-.03-7.777 2.93-7.777 6.805 0 2.344 2.082 4.807 3.683 6.468l1.72 1.634c1.36 1.207 3.132 2.226 4.976 2.226h1.828c.59 0 1.052-.059 1.789.383.905.542 2.33.42 3.078-.329.652-.651.85-1.587.504-2.444-.601-1.497-2.262-2.126-3.879-2.438l-1.125-.157c-1.445-.101-2.023-1.734-2.023-2.616Z" fill="url(#l)"/><g filter="url(#m)"><path d="m21.423 9.556 6.69 5.27a.852.852 0 0 1-1.03 1.356l-6.163-4.516a2 2 0 0 0-1.424-.373l-4.98.607A4 4 0 0 0 11 15.87v.77a4 4 0 0 0 .961 2.601l.175.205a3 3 0 0 0 1.947 1.03l1.918.215a3 3 0 0 1 1.727.8l.846.797a.707.707 0 0 1-.939 1.058l-.437-.366a3 3 0 0 0-1.923-.697h-2.176a4 4 0 0 1-2.725-1.071l-3.803-3.538a4 4 0 0 1-1.17-3.835l.238-1.026a5 5 0 0 1 4.723-3.864l8.469-.249a4 4 0 0 1 2.592.856Z" fill="#624C4B"/></g><defs><radialGradient id="a" cx="0" cy="0" r="1" gradientUnits="userSpaceOnUse" gradientTransform="matrix(1.1711 -3.78737 2.97467 .9198 15.244 16.91)"><stop stop-color="#331C2A"/><stop offset="1" stop-color="#1B0B0F"/></radialGradient><radialGradient id="c" cx="0" cy="0" r="1" gradientUnits="userSpaceOnUse" gradientTransform="matrix(.75744 4.71876 -3.97837 .6386 15.078 13.69)"><stop offset=".727" stop-color="#3E243D" stop-opacity="0"/><stop offset=".909" stop-color="#3E243D"/></radialGradient><radialGradient id="d" cx="0" cy="0" r="1" gradientUnits="userSpaceOnUse" gradientTransform="matrix(1 -7.625 2.64769 .34724 18.813 19.408)"><stop stop-color="#453336"/><stop offset="1" stop-color="#2E1B1C"/></radialGradient><radialGradient id="e" cx="0" cy="0" r="1" gradientUnits="userSpaceOnUse" gradientTransform="rotate(96.831 3.954 15.435) scale(6.87836 5.87923)"><stop offset=".86" stop-color="#412742" stop-opacity="0"/><stop offset=".965" stop-color="#412742"/></radialGradient><radialGradient id="f" cx="0" cy="0" r="1" gradientUnits="userSpaceOnUse" gradientTransform="matrix(1.625 -7.375 7.2506 1.59758 18.313 20.47)"><stop offset=".667" stop-color="#1C0A10" stop-opacity="0"/><stop offset="1" stop-color="#1C0A10"/></radialGradient><radialGradient id="h" cx="0" cy="0" r="1" gradientUnits="userSpaceOnUse" gradientTransform="rotate(-104.097 19.995 .892) scale(7.18512 1.56176)"><stop offset=".192" stop-color="#453135"/><stop offset="1" stop-color="#382828"/></radialGradient><radialGradient id="i" cx="0" cy="0" r="1" gradientUnits="userSpaceOnUse" gradientTransform="matrix(-1.11676 7.14566 -4.4133 -.68973 24.188 13.564)"><stop offset=".909" stop-color="#422844" stop-opacity="0"/><stop offset=".996" stop-color="#422844"/></radialGradient><radialGradient id="l" cx="0" cy="0" r="1" gradientUnits="userSpaceOnUse" gradientTransform="matrix(5.75 6.5 -2.27067 2.00867 2.813 18.22)"><stop stop-color="#4C3A3F"/><stop offset="1" stop-color="#4C3A3F" stop-opacity="0"/></radialGradient><linearGradient id="b" x1="17.138" y1="17.608" x2="16.116" y2="17.509" gradientUnits="userSpaceOnUse"><stop stop-color="#1A0A0D"/><stop offset="1" stop-color="#1A0A0D" stop-opacity="0"/></linearGradient><linearGradient id="g" x1="21.448" y1="17.259" x2="20.128" y2="17.509" gradientUnits="userSpaceOnUse"><stop stop-color="#1A0C0D"/><stop offset="1" stop-color="#1A0C0D" stop-opacity="0"/></linearGradient><linearGradient id="k" x1="9.481" y1="22.579" x2="26.71" y2="10.485" gradientUnits="userSpaceOnUse"><stop stop-color="#482D31"/><stop offset="1" stop-color="#553B37"/></linearGradient><filter id="j" x="2.11" y="6.025" width="29.13" height="19.251" filterUnits="userSpaceOnUse" color-interpolation-filters="sRGB"><feFlood flood-opacity="0" result="BackgroundImageFix"/><feBlend in="SourceGraphic" in2="BackgroundImageFix" result="shape"/><feColorMatrix in="SourceAlpha" values="0 0 0 0 0 0 0 0 0 0 0 0 0 0 0 0 0 0 127 0" result="hardAlpha"/><feOffset dx="1.25" dy="-1.25"/><feGaussianBlur stdDeviation=".75"/><feComposite in2="hardAlpha" operator="arithmetic" k2="-1" k3="1"/><feColorMatrix values="0 0 0 0 0.270588 0 0 0 0 0.180392 0 0 0 0 0.172549 0 0 0 1 0"/><feBlend in2="shape" result="effect1_innerShadow_20020_6744"/><feColorMatrix in="SourceAlpha" values="0 0 0 0 0 0 0 0 0 0 0 0 0 0 0 0 0 0 127 0" result="hardAlpha"/><feOffset dy="-.4"/><feGaussianBlur stdDeviation=".4"/><feComposite in2="hardAlpha" operator="arithmetic" k2="-1" k3="1"/><feColorMatrix values="0 0 0 0 0.231373 0 0 0 0 0.137255 0 0 0 0 0.239216 0 0 0 1 0"/><feBlend in2="effect1_innerShadow_20020_6744" result="effect2_innerShadow_20020_6744"/><feColorMatrix in="SourceAlpha" values="0 0 0 0 0 0 0 0 0 0 0 0 0 0 0 0 0 0 127 0" result="hardAlpha"/><feOffset dx=".15" dy=".15"/><feGaussianBlur stdDeviation=".25"/><feComposite in2="hardAlpha" operator="arithmetic" k2="-1" k3="1"/><feColorMatrix values="0 0 0 0 0.32549 0 0 0 0 0.266667 0 0 0 0 0.254902 0 0 0 1 0"/><feBlend in2="effect2_innerShadow_20020_6744" result="effect3_innerShadow_20020_6744"/></filter><filter id="m" x="3.296" y="6.699" width="27.142" height="18.811" filterUnits="userSpaceOnUse" color-interpolation-filters="sRGB"><feFlood flood-opacity="0" result="BackgroundImageFix"/><feBlend in="SourceGraphic" in2="BackgroundImageFix" result="shape"/><feGaussianBlur stdDeviation="1" result="effect1_foregroundBlur_20020_6744"/></filter></defs></svg>
